file-excel.svg

<svg fill="currentColor" viewBox="0 0 24 24"><path d="M14 2H6a2 2 0 0 0-2 2v16a2 2 0 0 0 2 2h12a2 2 0 0 0 2-2V8zm1.8 18H14l-2-3.4-2 3.4H8.2l2.9-4.5L8.2 11H10l2 3.4 2-3.4h1.8l-2.9 4.5zM13 9V3.5L18.5 9z"/></svg>

<svg  viewBox="0 0 24 24" fill="currentColor"><path  d="M14,2H6A2,2 0 0,0 4,4V20A2,2 0 0,0 6,22H18A2,2 0 0,0 20,20V8L14,2M15.8,20H14L12,16.6L10,20H8.2L11.1,15.5L8.2,11H10L12,14.4L14,11H15.8L12.9,15.5L15.8,20M13,9V3.5L18.5,9H13Z"/></svg>
